findly-builder/apps/searchassist/src/assets/icons/docker/check.svg

<svg width="14" height="14" viewBox="0 0 14 14" fill="none" xmlns="http://www.w3.org/2000/svg">
<path d="M7.17843 0.502645C3.59639 0.401083 0.604208 3.23702 0.502645 6.81905C0.401083 10.4011 3.23702 13.3972 6.81905 13.4987C10.4011 13.5964 13.3972 10.7644 13.4987 7.17843C13.5107 6.71937 13.4729 6.27055 13.3916 5.83646C13.3204 5.45632 12.8618 5.33602 12.5804 5.60138C12.445 5.72904 12.389 5.91835 12.4205 6.10172C12.4793 6.44341 12.5078 6.7945 12.4987 7.15499C12.4128 10.1862 9.87764 12.5808 6.84639 12.4987C3.81514 12.4128 1.41671 9.87764 1.49874 6.84639C1.58468 3.81514 4.11983 1.41671 7.15108 1.49874C8.00397 1.5256 8.8049 1.74585 9.51665 2.11731C9.72197 2.22446 9.97509 2.20036 10.1432 2.04103C10.3813 1.81533 10.3481 1.42597 10.0589 1.27097C9.19863 0.809842 8.22268 0.531475 7.17843 0.502645ZM12.3523 2.6921C12.157 2.49686 11.8405 2.49686 11.6452 2.6921L5.99874 8.33858L4.49874 6.84639L4.34964 6.69496C4.15628 6.49859 3.83996 6.49736 3.64509 6.69223C3.45032 6.887 3.45143 7.20312 3.64756 7.39651L3.79874 7.54559L5.64519 9.39796C5.84036 9.59376 6.15738 9.59401 6.35286 9.39853L12.3523 3.39913C12.5475 3.20389 12.5475 2.88734 12.3523 2.6921Z" fill="#28A745"/>
</svg>

<svg width="14" height="14" fill="none" xmlns="http://www.w3.org/2000/svg"><path d="M7.178.503C3.596.4.604 3.237.503 6.819.4 10.401 3.237 13.397 6.819 13.5a6.512 6.512 0 0 0 6.68-6.32 6.377 6.377 0 0 0-.107-1.343c-.072-.38-.53-.5-.812-.235a.556.556 0 0 0-.16.5c.06.342.088.694.079 1.054A5.51 5.51 0 0 1 6.846 12.5 5.513 5.513 0 0 1 1.5 6.846 5.513 5.513 0 0 1 7.15 1.5a5.467 5.467 0 0 1 2.366.618.544.544 0 0 0 .626-.076c.238-.226.205-.615-.084-.77a6.455 6.455 0 0 0-2.88-.768Zm5.174 2.19a.5.5 0 0 0-.707 0L6 8.338 4.5 6.845l-.15-.151a.496.496 0 1 0-.701.702l.15.149 1.847 1.852a.5.5 0 0 0 .708 0l6-5.999a.5.5 0 0 0 0-.707Z" fill="#28A745"/></svg>
